16x16/actions/circular-arrow-shape.svg

<svg viewBox="0 0 16 16" xmlns="http://www.w3.org/2000/svg"><path d="m6.5 3a4.5 4.5 0 0 0 -4.5 4.5v1.5h1v-1.5a3.5 3.5 0 1 1 7 0v3.594l-2.281-2.314-.719.72 3.281 3.281.219.219.219-.219 3.281-3.281-.719-.719-2.281 2.313v-3.594a4.5 4.5 0 0 0 -4.5-4.5z" fill="#8b9cbe"/></svg>

<svg viewBox="0 0 16 16" xmlns="http://www.w3.org/2000/svg">
    <path d="M6.5 3A4.5 4.5 0 0 0 2 7.5V9h1V7.5a3.5 3.5 0 1 1 7 0v3.594L7.719 8.78 7 9.5l3.281 3.281.219.219.219-.219L14 9.5l-.719-.719L11 11.094V7.5A4.5 4.5 0 0 0 6.5 3z" fill="#f4f4f7"/>
</svg>
